app/images/participant-modal/curly-right-arrow.svg

<svg width="198" height="88" viewBox="0 0 198 88" fill="none" xmlns="http://www.w3.org/2000/svg">
<path d="M14.21 2.37842C14.21 1.27385 13.3145 0.378418 12.21 0.378418C11.1054 0.378418 10.21 1.27385 10.21 2.37842L14.21 2.37842ZM174.975 84.4142C175.756 85.1953 177.022 85.1953 177.803 84.4142L190.531 71.6863C191.312 70.9052 191.312 69.6389 190.531 68.8579C189.75 68.0768 188.484 68.0768 187.703 68.8579L176.389 80.1716L165.075 68.8579C164.294 68.0768 163.028 68.0768 162.247 68.8579C161.466 69.6389 161.466 70.9052 162.247 71.6863L174.975 84.4142ZM10.21 2.37842C10.21 8.69863 13.1698 13.5163 18.0719 17.1578C22.8841 20.7323 29.6081 23.2174 37.3905 25.1094C52.9304 28.8874 73.6887 30.5062 94.0518 33.0488C114.584 35.6125 134.795 39.1174 149.849 46.5674C157.347 50.278 163.466 54.9209 167.711 60.8222C171.938 66.6986 174.389 73.9354 174.389 83L178.389 83C178.389 73.1592 175.71 65.0919 170.958 58.4864C166.225 51.9057 159.517 46.8888 151.623 42.9824C135.894 35.1985 115.06 31.6409 94.5474 29.0796C73.8656 26.4972 53.5791 24.9285 38.3354 21.2226C30.726 19.3726 24.6235 17.0416 20.4571 13.9467C16.3808 10.9187 14.21 7.2136 14.21 2.37842L10.21 2.37842Z" fill="#8347F7"/>
</svg>

<svg width="198" height="88" fill="none" xmlns="http://www.w3.org/2000/svg"><path d="M14.21 2.378a2 2 0 00-4 0h4zm160.765 82.036a2 2 0 002.828 0l12.728-12.728a2 2 0 00-2.828-2.828l-11.314 11.314-11.314-11.314a2 2 0 10-2.828 2.828l12.728 12.728zM10.21 2.378c0 6.32 2.96 11.138 7.862 14.78 4.812 3.574 11.536 6.06 19.319 7.951 15.54 3.778 36.298 5.397 56.66 7.94 20.533 2.563 40.744 6.068 55.798 13.518 7.498 3.711 13.617 8.354 17.862 14.255 4.227 5.877 6.678 13.113 6.678 22.178h4c0-9.84-2.679-17.908-7.431-24.514-4.733-6.58-11.441-11.597-19.335-15.504C135.894 35.2 115.06 31.641 94.547 29.08c-20.681-2.583-40.968-4.151-56.212-7.857-7.609-1.85-13.712-4.181-17.878-7.276-4.076-3.028-6.247-6.733-6.247-11.569h-4z" fill="#8347F7"/></svg>
